src/pos-icons/layers-search.svg

<svg height="24" viewBox="0 0 24 24" width="24" xmlns="http://www.w3.org/2000/svg"><path d="m19.31 18.9c.44-.69.69-1.52.69-2.4 0-2.5-2-4.5-4.5-4.5s-4.5 2-4.5 4.5 2 4.5 4.5 4.5c.87 0 1.69-.25 2.38-.68l3.12 3.07 1.39-1.39zm-3.81.1c-1.38 0-2.5-1.12-2.5-2.5s1.12-2.5 2.5-2.5 2.5 1.12 2.5 2.5-1.12 2.5-2.5 2.5m-5.91.2-6.59-5.13 1.62-1.26 4.38 3.41v.28c0 .96.22 1.88.59 2.7m-4.96-8.93-1.63-1.27 9-7 9 7-1.64 1.27-.71.55c-.93-.52-2.01-.82-3.15-.82-2.71 0-5.04 1.68-6 4.05z"/></svg>

<?xml version="1.0" encoding="UTF-8"?><!DOCTYPE svg PUBLIC "-//W3C//DTD SVG 1.1//EN" "http://www.w3.org/Graphics/SVG/1.1/DTD/svg11.dtd"><svg xmlns="http://www.w3.org/2000/svg" xmlns:xlink="http://www.w3.org/1999/xlink" version="1.1" id="mdi-layers-search" width="24" height="24" viewBox="0 0 24 24"><path d="M19.31 18.9C19.75 18.21 20 17.38 20 16.5C20 14 18 12 15.5 12S11 14 11 16.5 13 21 15.5 21C16.37 21 17.19 20.75 17.88 20.32L21 23.39L22.39 22L19.31 18.9M15.5 19C14.12 19 13 17.88 13 16.5S14.12 14 15.5 14 18 15.12 18 16.5 16.88 19 15.5 19M9.59 19.2L3 14.07L4.62 12.81L9 16.22C9 16.32 9 16.41 9 16.5C9 17.46 9.22 18.38 9.59 19.2M4.63 10.27L3 9L12 2L21 9L19.36 10.27L18.65 10.82C17.72 10.3 16.64 10 15.5 10C12.79 10 10.46 11.68 9.5 14.05L4.63 10.27Z" /></svg>
